StripePaymentSheet/StripePaymentSheet/Resources/StripePaymentSheet.xcassets/Carousel/carousel_card_cartes_bancaires.imageset/cartesBancairesDark.svg

<svg fill="none" height="40" viewBox="0 0 56 40" width="56" xmlns="http://www.w3.org/2000/svg"><path clip-rule="evenodd" d="m44.782 8.22705h-33.5643v23.54405h33.5643zm-3.6223 7.54065c.1495.3727.2242.758.2242 1.1434 0 .3853-.0747.7706-.218 1.156-.1495.3537-.3613.6695-.6416.9412-.3115.3032-.6541.5116-1.0216.6316-.3738.1201-.8784.1769-1.5138.1769h-8.5717v-2.8994-2.8994h8.5655c.6416 0 1.1462.0568 1.5137.1768.3738.1201.7102.3285 1.0217.6317.2803.2717.4983.5875.6416.9412zm.2242 7.7192c0-.3917-.0747-.7707-.2242-1.1434-.1433-.3537-.3613-.6695-.6416-.9412-.3115-.3032-.6479-.5116-1.0217-.6316-.3675-.1201-.8721-.1832-1.5137-.1832h-8.5655v2.9057 2.9057h8.5717c.6354 0 1.14-.0631 1.5138-.1832.3675-.12.7101-.3347 1.0216-.6316.2803-.2717.4921-.5875.6416-.9476.1433-.379.218-.758.218-1.1496zm-19.7473-9.8416c4.18 0 6.8337 2.4193 7.0082 6.1652v.0063h-6.7901v.7707h6.7901c-.162 3.7522-2.7971 6.1841-7.0082 6.1841-4.2049 0-7.0206-2.4635-7.0206-6.5631 0-3.9733 2.7036-6.5632 7.0206-6.5632z" fill="#fff" fill-rule="evenodd"/></svg>

<svg width="56" height="40" viewBox="0 0 56 40" fill="none" xmlns="http://www.w3.org/2000/svg">
<path fill-rule="evenodd" clip-rule="evenodd" d="M44.782 8.22705H11.2177V31.7711H44.782V8.22705ZM41.1597 15.7677C41.3092 16.1404 41.3839 16.5257 41.3839 16.9111C41.3839 17.2964 41.3092 17.6817 41.1659 18.0671C41.0164 18.4208 40.8046 18.7366 40.5243 19.0083C40.2128 19.3115 39.8702 19.5199 39.5027 19.6399C39.1289 19.76 38.6243 19.8168 37.9889 19.8168H29.4172V16.9174V14.018H37.9827C38.6243 14.018 39.1289 14.0748 39.4964 14.1948C39.8702 14.3149 40.2066 14.5233 40.5181 14.8265C40.7984 15.0982 41.0164 15.414 41.1597 15.7677ZM41.3839 23.4869C41.3839 23.0952 41.3092 22.7162 41.1597 22.3435C41.0164 21.9898 40.7984 21.674 40.5181 21.4023C40.2066 21.0991 39.8702 20.8907 39.4964 20.7707C39.1289 20.6506 38.6243 20.5875 37.9827 20.5875H29.4172V23.4932V26.3989H37.9889C38.6243 26.3989 39.1289 26.3358 39.5027 26.2157C39.8702 26.0957 40.2128 25.881 40.5243 25.5841C40.8046 25.3124 41.0164 24.9966 41.1659 24.6365C41.3092 24.2575 41.3839 23.8785 41.3839 23.4869ZM21.6366 13.6453C25.8166 13.6453 28.4703 16.0646 28.6448 19.8105V19.8168H21.8547V20.5875H28.6448C28.4828 24.3397 25.8477 26.7716 21.6366 26.7716C17.4317 26.7716 14.616 24.3081 14.616 20.2085C14.616 16.2352 17.3196 13.6453 21.6366 13.6453Z" fill="white"/>
</svg>
